project/images/official/editable/527.svg

<?xml version="1.0" encoding="UTF-8" standalone="no"?>
<svg
   width="59.564735pt"
   height="35.776272pt"
   viewBox="0 0 59.564736 35.776272"
   version="1.1"
   id="svg3513"
   xmlns="http://www.w3.org/2000/svg"
   xmlns:svg="http://www.w3.org/2000/svg">
  <defs
     id="defs3517" />
  <g
     id="layer2"
     style="display:inline"
     transform="scale(0.74036996,1)" />
  <g
     id="layer1">
    <rect
       style="display:inline;fill:#ffffff;stroke:none;stroke-width:0;stroke-linecap:square;stroke-miterlimit:4;stroke-dasharray:none;stroke-opacity:1"
       id="rect3621"
       width="59.564735"
       height="35.776272"
       x="0"
       y="8.8817842e-16" />
    <rect
       style="display:inline;fill:none;stroke:#000000;stroke-width:0.164154;stroke-linecap:square;stroke-miterlimit:4;stroke-dasharray:none;stroke-opacity:1"
       id="rect3621-4"
       width="58.666401"
       height="34.468613"
       x="0.486384"
       y="0.729029" />
  </g>
  <g
     id="layer3"
     style="display:inline">
    <g
       id="surface1"
       transform="translate(7.8884107,4.2984569)"
       style="display:inline">
      <path
         style="fill:#211e1e;fill-opacity:1;fill-rule:nonzero;stroke:none"
         d="M 3.851562,27.042969 3.84375,22.816406 C 3.671875,22.648438 3.425781,22.40625 3.261719,22.234375 2.714844,21.660156 2.226562,21.027344 1.804688,20.351562 1.449219,19.785156 1.15625,19.191406 0.914062,18.570312 0.605469,17.757812 0.410156,16.886719 0.300781,16.023438 0.164062,14.972656 0.164062,13.914062 0.304688,12.871094 0.464844,11.664062 0.835938,10.496094 1.363281,9.402344 1.847656,8.40625 2.46875,7.472656 3.230469,6.667969 3.964844,5.898438 4.894531,5.210938 5.789062,4.640625 6.753906,4.027344 7.792969,3.484375 8.828125,3.003906 10.277344,2.332031 11.777344,1.765625 13.3125,1.320312 14.589844,0.949219 15.902344,0.675781 17.21875,0.480469 18.445312,0.296875 19.6875,0.199219 20.929688,0.175781 22.46875,0.140625 24,0.234375 25.519531,0.449219 c 1.511719,0.210937 3.015625,0.566406 4.46875,1.019531 1.601563,0.492188 3.15625,1.140625 4.648438,1.898438 1.351562,0.6875 2.664062,1.492187 3.863281,2.425781 1.019531,0.792969 1.875,1.808593 2.566406,2.902343 0.535156,0.847657 0.964844,1.765626 1.253906,2.730469 0.257813,0.855469 0.382813,1.785157 0.425782,2.675781 0.03906,0.886719 -0.0078,1.773438 -0.167969,2.640626 -0.214844,1.148437 -0.644531,2.25 -1.222656,3.265624 -0.425781,0.75 -0.945313,1.464844 -1.566407,2.0625 -0.136718,0.132813 -0.34375,0.316407 -0.488281,0.441407 l 0.0078,4.542969 3.761718,-0.01172 -0.02344,1.476562 -42.859375,-0.02734 0.003906,-1.457032 3.660156,0.0078"
         id="path2621" />
      <path
         style="fill:#ffffff;fill-opacity:1;fill-rule:nonzero;stroke:none"
         d="m 21.328125,25.269531 c -0.175781,0 -0.355469,-0.02734 -0.527344,-0.09766 -0.164062,-0.06641 -0.316406,-0.164063 -0.449219,-0.292969 -0.128906,-0.125 -0.230468,-0.277344 -0.300781,-0.441406 -0.06641,-0.167969 -0.105469,-0.34375 -0.105469,-0.53125 0,-0.175781 0.03516,-0.355469 0.101563,-0.523438 0.07031,-0.167968 0.171875,-0.320312 0.300781,-0.445312 0.128906,-0.125 0.28125,-0.230469 0.449219,-0.296875 0.167969,-0.07031 0.34375,-0.101563 0.527344,-0.09766 0.882812,0.0078 1.519531,0.832031 1.3125,1.683593 -0.144531,0.605469 -0.683594,1.035157 -1.308594,1.042969"
         id="path2623" />
      <path
         style="fill:#ffffff;fill-opacity:1;fill-rule:nonzero;stroke:none"
         d="m 18.933594,27.0625 c -0.695313,-0.53125 -1.183594,-1.230469 -1.4375,-2.066406 -0.25,-0.835938 -0.222656,-1.695313 0.07813,-2.515625 0.296875,-0.820313 0.828125,-1.492188 1.558593,-1.96875 0.730469,-0.480469 1.558594,-0.707031 2.429688,-0.65625 0.832031,0.05078 1.597656,0.335937 2.253906,0.855469 0.652344,0.511718 1.117188,1.191406 1.355469,1.988281 0.238281,0.800781 0.226563,1.621093 -0.03516,2.414062 -0.261719,0.789063 -0.738281,1.457031 -1.410157,1.949219 h 14.289063 l 0.0039,-3.417969 c -0.02734,0.01953 -0.101562,0.06641 -0.128906,0.07813 -0.171875,0.07422 -0.410156,0.09375 -0.59375,0.09766 l -11.324219,0.01563 c -0.02734,-2.59375 -2.167968,-4.671876 -4.769531,-4.621094 -2.511719,0.05469 -4.535156,2.085937 -4.574219,4.605468 l -2.496094,-0.0039 -0.02344,-14.273437 C 14.125,9.347656 14.085938,9.152344 13.996094,8.976562 13.800781,8.601562 13.40625,8.378906 12.988281,8.402344 L 7.390625,8.390625 c -0.375,-0.023437 -0.742187,0.121094 -1,0.390625 -0.234375,0.25 -0.355469,0.585938 -0.339844,0.925781 v 14.09375 H 5.097656 l 0.00781,3.242188 13.828125,0.01953"
         id="path2625" />
      <path
         style="fill:#ffffff;fill-opacity:1;fill-rule:nonzero;stroke:none"
         d="M 29.121094,14.21875 25.75,14.222656 c -0.226562,0.01953 -0.453125,-0.05469 -0.625,-0.210937 C 24.972656,13.875 24.878906,13.6875 24.851562,13.488281 l 0.0039,-4.039062 c -0.03125,-0.246094 0.04297,-0.503907 0.203125,-0.695313 0.183594,-0.214844 0.453125,-0.335937 0.730468,-0.328125 l 7.265626,0.00391 c 0.285163,-0.023441 0.5586,0.082028 0.757819,0.27734 0.1875,0.1875 0.289062,0.441407 0.28125,0.703125 v 4.046875 c -0.0039,0.234375 -0.117188,0.453125 -0.296875,0.601563 -0.121094,0.09766 -0.265625,0.15625 -0.417969,0.167968 l -4.257812,-0.0078"
         id="path2627" />
      <path
         style="fill:#211e1e;fill-opacity:1;fill-rule:nonzero;stroke:none"
         d="M 6.921875,23.792969 6.914062,9.769531 C 6.890625,9.601562 6.957031,9.429688 7.082031,9.316406 7.183594,9.222656 7.316406,9.167969 7.460938,9.167969 l 5.234374,0.00781 c 0.203126,-0.011719 0.398438,0.085938 0.511719,0.25 0.07422,0.109375 0.109375,0.234375 0.105469,0.367188 l -0.03906,14.007812 -6.351563,-0.0078"
         id="path2629" />
      <path
         style="fill:#ffffff;fill-opacity:1;fill-rule:nonzero;stroke:none"
         d="m 7.855469,14.210938 0.00391,-4.117188 4.527344,0.0039 -0.0078,4.136719 -4.523437,-0.02344"
         id="path2631" />
    </g>
  </g>
</svg>

<?xml version="1.0" encoding="UTF-8"?>
<svg xmlns="http://www.w3.org/2000/svg" xmlns:xlink="http://www.w3.org/1999/xlink" width="44pt" height="29pt" viewBox="0 0 44 29" version="1.1">
<g id="surface1">
<path style=" stroke:none;fill-rule:nonzero;fill:rgb(13.729858%,12.159729%,12.548828%);fill-opacity:1;" d="M 3.851562 27.042969 L 3.84375 22.816406 C 3.671875 22.648438 3.425781 22.40625 3.261719 22.234375 C 2.714844 21.660156 2.226562 21.027344 1.804688 20.351562 C 1.449219 19.785156 1.15625 19.191406 0.914062 18.570312 C 0.605469 17.757812 0.410156 16.886719 0.300781 16.023438 C 0.164062 14.972656 0.164062 13.914062 0.304688 12.871094 C 0.464844 11.664062 0.835938 10.496094 1.363281 9.402344 C 1.847656 8.40625 2.46875 7.472656 3.230469 6.667969 C 3.964844 5.898438 4.894531 5.210938 5.789062 4.640625 C 6.753906 4.027344 7.792969 3.484375 8.828125 3.003906 C 10.277344 2.332031 11.777344 1.765625 13.3125 1.320312 C 14.589844 0.949219 15.902344 0.675781 17.21875 0.480469 C 18.445312 0.296875 19.6875 0.199219 20.929688 0.175781 C 22.46875 0.140625 24 0.234375 25.519531 0.449219 C 27.03125 0.660156 28.535156 1.015625 29.988281 1.46875 C 31.589844 1.960938 33.144531 2.609375 34.636719 3.367188 C 35.988281 4.054688 37.300781 4.859375 38.5 5.792969 C 39.519531 6.585938 40.375 7.601562 41.066406 8.695312 C 41.601562 9.542969 42.03125 10.460938 42.320312 11.425781 C 42.578125 12.28125 42.703125 13.210938 42.746094 14.101562 C 42.785156 14.988281 42.738281 15.875 42.578125 16.742188 C 42.363281 17.890625 41.933594 18.992188 41.355469 20.007812 C 40.929688 20.757812 40.410156 21.472656 39.789062 22.070312 C 39.652344 22.203125 39.445312 22.386719 39.300781 22.511719 L 39.308594 27.054688 L 43.070312 27.042969 L 43.046875 28.519531 L 0.1875 28.492188 L 0.191406 27.035156 L 3.851562 27.042969 "/>
<path style=" stroke:none;fill-rule:nonzero;fill:rgb(100%,100%,100%);fill-opacity:1;" d="M 21.328125 25.269531 C 21.152344 25.269531 20.972656 25.242188 20.800781 25.171875 C 20.636719 25.105469 20.484375 25.007812 20.351562 24.878906 C 20.222656 24.753906 20.121094 24.601562 20.050781 24.4375 C 19.984375 24.269531 19.945312 24.09375 19.945312 23.90625 C 19.945312 23.730469 19.980469 23.550781 20.046875 23.382812 C 20.117188 23.214844 20.21875 23.0625 20.347656 22.9375 C 20.476562 22.8125 20.628906 22.707031 20.796875 22.640625 C 20.964844 22.570312 21.140625 22.539062 21.324219 22.542969 C 22.207031 22.550781 22.84375 23.375 22.636719 24.226562 C 22.492188 24.832031 21.953125 25.261719 21.328125 25.269531 "/>
<path style=" stroke:none;fill-rule:nonzero;fill:rgb(100%,100%,100%);fill-opacity:1;" d="M 18.933594 27.0625 C 18.238281 26.53125 17.75 25.832031 17.496094 24.996094 C 17.246094 24.160156 17.273438 23.300781 17.574219 22.480469 C 17.871094 21.660156 18.402344 20.988281 19.132812 20.511719 C 19.863281 20.03125 20.691406 19.804688 21.5625 19.855469 C 22.394531 19.90625 23.160156 20.191406 23.816406 20.710938 C 24.46875 21.222656 24.933594 21.902344 25.171875 22.699219 C 25.410156 23.5 25.398438 24.320312 25.136719 25.113281 C 24.875 25.902344 24.398438 26.570312 23.726562 27.0625 L 38.015625 27.0625 L 38.019531 23.644531 C 37.992188 23.664062 37.917969 23.710938 37.890625 23.722656 C 37.71875 23.796875 37.480469 23.816406 37.296875 23.820312 L 25.972656 23.835938 C 25.945312 21.242188 23.804688 19.164062 21.203125 19.214844 C 18.691406 19.269531 16.667969 21.300781 16.628906 23.820312 L 14.132812 23.816406 L 14.109375 9.542969 C 14.125 9.347656 14.085938 9.152344 13.996094 8.976562 C 13.800781 8.601562 13.40625 8.378906 12.988281 8.402344 L 7.390625 8.390625 C 7.015625 8.367188 6.648438 8.511719 6.390625 8.78125 C 6.15625 9.03125 6.035156 9.367188 6.050781 9.707031 L 6.050781 23.800781 L 5.097656 23.800781 L 5.105469 27.042969 L 18.933594 27.0625 "/>
<path style=" stroke:none;fill-rule:nonzero;fill:rgb(100%,100%,100%);fill-opacity:1;" d="M 29.121094 14.21875 L 25.75 14.222656 C 25.523438 14.242188 25.296875 14.167969 25.125 14.011719 C 24.972656 13.875 24.878906 13.6875 24.851562 13.488281 L 24.855469 9.449219 C 24.824219 9.203125 24.898438 8.945312 25.058594 8.753906 C 25.242188 8.539062 25.511719 8.417969 25.789062 8.425781 L 33.054688 8.429688 C 33.339844 8.40625 33.613281 8.511719 33.8125 8.707031 C 34 8.894531 34.101562 9.148438 34.09375 9.410156 L 34.09375 13.457031 C 34.089844 13.691406 33.976562 13.910156 33.796875 14.058594 C 33.675781 14.15625 33.53125 14.214844 33.378906 14.226562 L 29.121094 14.21875 "/>
<path style=" stroke:none;fill-rule:nonzero;fill:rgb(13.729858%,12.159729%,12.548828%);fill-opacity:1;" d="M 6.921875 23.792969 L 6.914062 9.769531 C 6.890625 9.601562 6.957031 9.429688 7.082031 9.316406 C 7.183594 9.222656 7.316406 9.167969 7.460938 9.167969 L 12.695312 9.175781 C 12.898438 9.164062 13.09375 9.261719 13.207031 9.425781 C 13.28125 9.535156 13.316406 9.660156 13.3125 9.792969 L 13.273438 23.800781 L 6.921875 23.792969 "/>
<path style=" stroke:none;fill-rule:nonzero;fill:rgb(100%,100%,100%);fill-opacity:1;" d="M 7.855469 14.210938 L 7.859375 10.09375 L 12.386719 10.097656 L 12.378906 14.234375 L 7.855469 14.210938 "/>
</g>
</svg>
